X:1
T:Never Shone a Light So Fair!
T:Never Shone a Light So Fair!
T:Robert Lowry, 1882
T:Frances Jane (Fanny) Crosby, 1870
T:Public Domain Courtesy of the Cyber Hymnal™
T:Public Domain Courtesy of the Cyber Hymnal™
C:Robert Lowry, 1882
Z:Public Domain
Z:Courtesy of the Cyber Hymnal™
%%score ( 1 2 ) ( 3 4 )
L:1/8
Q:1/4=110
M:4/4
K:D
V:1 treble 
V:2 treble 
V:3 bass 
V:4 bass 
V:1
 [DA]2 [DB]2 [DA]3 [DF] | [DA]2 [DB]2 [DA]4 | [DF]2 [DG]2 [DF]3 D | [CE]2 [CF]2 D4 | %4
w: 1.~Nev- er shone a|light so fair,|Nev- er fell so|sweet a song,|
w: 2.~Still that Ju- bi-|lee of song|Breaks up- on the|ris- ing morn;|
w: 3.~Wel- come now the|bless- èd day,|When we praise the|Lord our king;|
 [DA]2 [DB]2 [DA]3 [DF] | [Fd]2 [GB]2 [FA]4 | [EA]2 [Ed]2 [Ec]3 [EA] | [Ec]2 [^GB]2 A4 | %8
w: As the cho- rus|in the air|Chant- ed by the|an- gel throng;|
w: While the an- them|rolls a- long,|Floods of light the|earth a- dorn;|
w: When we meet to|praise and pray,|And His love with|glad- ness sing;|
 [GA]3 [GA] [GA][GA][GB][Gc] | [Fd]4 [FA]4 ||"^Refrain" [EA]3 [EA] [EA][EA][Ec][Fd] | [Ge]4 [GA]4 | %12
w: Ev- ’ry star took up the|sto- ry:|||
w: Old and young take up the|sto- ry:|“Christ has come, the Prince of|glo- ry,|
w: Let the world take up the|sto- ry:|||
 [Fd]3 [Fd] ([Ge][Bd]) ([Ac][GB]) | [FA]2 [Fd]2 [FA]4 | [DB]3 [DB] [DA]4 | [CG]3 [CG] [DF]4 | %16
w: ||||
w: Come in hum- * ble *|hearts to dwell;|God with us,|God with us,|
w: ||||
 [DB]2 [Dd]2 [DA]3 d | [Fd]2 [Gc]2 [Fd]4 |] %18
w: ||
w: God with us, Im-|man- u- el!”|
w: ||
V:2
 x8 | x8 | x7 D | x4 D4 | x8 | x8 | x8 | x4 A4 | x8 | x8 || x8 | x8 | x8 | x8 | x8 | x8 | %16
 x7 (D/E/) | x8 |] %18
V:3
 [D,F,]2 [D,G,]2 [D,F,]3 [D,A,] | [D,F,]2 [D,G,]2 [D,F,]4 | [D,A,]2 [D,B,]2 [D,A,]3 [D,F,] | %3
 [A,,G,]2 [A,,A,]2 [D,F,]4 | [D,F,]2 [D,G,]2 [D,F,]3 [D,A,] | [D,A,]2 [D,D]2 [D,D]4 | %6
 [C,A,]2 [B,,^G,]2 [A,,A,]3 [C,A,] | [E,A,]2 [E,D]2 [A,,C]4 | %8
 [A,,C]3 [A,,C] [A,,C][A,,C][A,,D][A,,E] | [D,D]4 [D,D]4 || [A,C]3 [A,C] [A,C][A,C]A,A, | %11
 [A,C]4 [A,C]4 | [D,D]3 [D,A,] (B,D) [G,D]2 | [D,D]2 [D,A,]2 [D,D]4 | [G,D]3 [G,D] (D2 A,2) | %15
 [E,A,]3 [A,,A,] [D,A,]4 | [G,,G,]2 [B,,G,]2 [D,F,]3 ([F,A,]/[G,B,]/) | A,2 [A,,A,]2 [D,A,]4 |] %18
V:4
 x8 | x8 | x8 | x8 | x8 | x8 | x8 | x8 | x8 | x8 || x6 A,A, | x8 | x4 G,2 x2 | x8 | x4 F,4 | x8 | %16
 x8 | A,2 x6 |] %18

